;FLAVOR:Marlin
;TIME:10421
;Filament used: 6.47818m
;Layer height: 0.2
;MINX:92.665
;MINY:79.946
;MINZ:0.2
;MAXX:185.101
;MAXY:131.053
;MAXZ:50
;Generated with Cura_SteamEngine 4.12.0
M140 S60
M105
M190 S60
M104 S200
M105
M109 S200
M82 ;absolute extrusion mode
M201 X500.00 Y500.00 Z100.00 E5000.00 ;Setup machine max acceleration
M203 X500.00 Y500.00 Z10.00 E50.00 ;Setup machine max feedrate
M204 P500.00 R1000.00 T500.00 ;Setup Print/Retract/Travel acceleration
M205 X8.00 Y8.00 Z0.40 E5.00 ;Setup Jerk
M220 S100 ;Reset Feedrate
M221 S100 ;Reset Flowrate

G28 ;Home

G92 E0 ;Reset Extruder
G1 Z2.0 F3000 ;Move Z Axis up
G1 X1.1 Y20 Z0.28 F5000.0 ;Move to start position
G1 X1.1 Y200.0 Z0.28 F1500.0 E15 ;Draw the first line
G1 X1.4 Y200.0 Z0.28 F5000.0 ;Move to side a little
G1 X1.4 Y20 Z0.28 F1500.0 E30 ;Draw the second line
G92 E0 ;Reset Extruder
G1 Z2.0 F3000 ;Move Z Axis up
G92 E0
G92 E0
G1 F2700 E-5
;LAYER_COUNT:250
;LAYER:0
M107
G0 F6000 X154.967 Y107.86 Z0.2
;TYPE:SKIRT
G1 F2700 E0
G1 F1200 X155.018 Y107.818 E0.00226
G1 X155.281 Y107.787 E0.01134
G1 X157.334 Y107.787 E0.08167
G1 X157.283 Y107.989 E0.0888
G1 X155.455 Y107.988 E0.15143
G1 X155.006 Y107.941 E0.16689
G1 X154.967 Y107.86 E0.16997
G0 F6000 X154.635 Y107.63
G1 F1200 X154.833 Y107.459 E0.17894
G1 X154.915 Y107.428 E0.18194
G1 X155.259 Y107.387 E0.19381
G1 X157.85 Y107.387 E0.28257
G1 X157.673 Y108.073 E0.30684
G1 X157.617 Y108.389 E0.31783
G1 X155.433 Y108.388 E0.39265
G1 X154.883 Y108.33 E0.4116
G1 X154.76 Y108.264 E0.41638
G1 X154.6 Y108.065 E0.42513
G1 X154.565 Y107.791 E0.43459
G1 X154.635 Y107.63 E0.44061
G0 F6000 X154.306 Y107.398
G1 F1200 X154.449 Y107.238 E0.44796
G1 X154.817 Y107.037 E0.46232
G1 X155.236 Y106.987 E0.47678
G1 X158.384 Y106.987 E0.58462
G1 X158.33 Y107.128 E0.5898
G1 X158.061 Y108.173 E0.62676
G1 X157.978 Y108.656 E0.64355
G1 X157.972 Y108.79 E0.64815
G1 X155.419 Y108.788 E0.73561
G1 X154.788 Y108.722 E0.75734
G1 X154.491 Y108.564 E0.76887
G1 X154.296 Y108.35 E0.77878
G1 X154.164 Y107.974 E0.79244
G1 X154.2 Y107.598 E0.80538
G1 X154.306 Y107.398 E0.81313
G0 F6000 X153.974 Y107.17
G1 F1200 X154.181 Y106.938 E0.82378
G1 X154.459 Y106.745 E0.83538
G1 X154.719 Y106.646 E0.84491
G1 X155.214 Y106.587 E0.86199
G1 X158.975 Y106.587 E0.99083
G1 X158.929 Y106.675 E0.99423
G1 X158.717 Y107.228 E1.01452
G1 X158.448 Y108.273 E1.05149
G1 X158.366 Y108.921 E1.07386
G1 X158.366 Y109.19 E1.08308
G1 X155.396 Y109.188 E1.18482
G1 X154.695 Y109.114 E1.20897
G1 X154.439 Y109.017 E1.21835
G1 X154.229 Y108.87 E1.22713
G1 X153.965 Y108.578 E1.24062
G1 X153.845 Y108.349 E1.24948
G1 X153.764 Y108.021 E1.26105
G1 X153.765 Y107.695 E1.27222
G1 X153.823 Y107.453 E1.28074
G1 X153.974 Y107.17 E1.29173
G0 F6000 X153.644 Y106.94
G1 F1200 X153.918 Y106.633 E1.30583
G1 X154.272 Y106.388 E1.32058
G1 X154.624 Y106.254 E1.33348
G1 X155.183 Y106.187 E1.35277
G1 X159.635 Y106.187 E1.50528
G1 X159.284 Y106.86 E1.53129
G1 X159.104 Y107.328 E1.54846
G1 X158.835 Y108.373 E1.58543
G1 X158.766 Y108.921 E1.60435
G1 X158.766 Y109.59 E1.62727
G1 X155.373 Y109.588 E1.74351
G1 X154.603 Y109.507 E1.77003
G1 X154.253 Y109.374 E1.78286
G1 X153.958 Y109.168 E1.79518
G1 X153.634 Y108.81 E1.81173
G1 X153.469 Y108.493 E1.82397
G1 X153.364 Y108.068 E1.83897
G1 X153.365 Y107.645 E1.85346
G1 X153.446 Y107.313 E1.86516
G1 X153.644 Y106.94 E1.87963
G0 F6000 X153.315 Y106.707
G1 F1200 X153.652 Y106.331 E1.89693
G1 X154.08 Y106.034 E1.91478
G1 X154.531 Y105.862 E1.93131
G1 X155.161 Y105.787 E1.95305
G1 X160.385 Y105.787 E2.13201
G1 X160.311 Y105.871 E2.13585
G1 X160.061 Y106.234 E2.15094
G1 X159.639 Y107.044 E2.18223
G1 X159.492 Y107.427 E2.19629
G1 X159.223 Y108.472 E2.23325
G1 X159.166 Y108.921 E2.24876
G1 X159.166 Y109.893 E2.28206
G1 X159.181 Y110.025 E2.28661
G1 X159.127 Y110.011 E2.28852
G1 X158.854 Y109.99 E2.2979
G1 X155.351 Y109.988 E2.41791
G1 X154.508 Y109.899 E2.44695
G1 X154.066 Y109.731 E2.46315
G1 X153.695 Y109.472 E2.47865
G1 X153.301 Y109.037 E2.49875
G1 X153.091 Y108.634 E2.51432
G1 X152.964 Y108.119 E2.53249
G1 X152.965 Y107.6 E2.55027
G1 X153.069 Y107.17 E2.56543
G1 X153.315 Y106.707 E2.58339
G0 F6000 X152.983 Y106.477
G1 F1200 X153.384 Y106.03 E2.60396
G1 X153.895 Y105.676 E2.62526
G1 X154.432 Y105.471 E2.64495
G1 X155.138 Y105.387 E2.6693
G1 X161.276 Y105.387 E2.87958
G1 X160.61 Y106.137 E2.91394
G1 X160.415 Y106.419 E2.92569
G1 X159.993 Y107.229 E2.95698
G1 X159.879 Y107.527 E2.96791
G1 X159.61 Y108.572 E3.00487
G1 X159.566 Y108.921 E3.01692
G1 X159.566 Y109.893 E3.05022
G1 X159.604 Y110.219 E3.06147
G1 X159.72 Y110.704 E3.07855
G1 X159.58 Y110.594 E3.08465
G1 X159.276 Y110.455 E3.0961
G1 X158.854 Y110.39 E3.11073
G1 X155.328 Y110.388 E3.23152
G1 X154.415 Y110.292 E3.26297
G1 X153.877 Y110.088 E3.28268
G1 X153.429 Y109.774 E3.30142
G1 X152.97 Y109.267 E3.32485
G1 X152.715 Y108.777 E3.34378
G1 X152.564 Y108.167 E3.36531
G1 X152.565 Y107.55 E3.38644
G1 X152.692 Y107.027 E3.40488
G1 X152.983 Y106.477 E3.4262
G0 F6000 X152.653 Y106.246
G1 F1200 X153.118 Y105.727 E3.45007
G1 X153.707 Y105.319 E3.47461
G1 X154.333 Y105.081 E3.49756
G1 X155.116 Y104.987 E3.52457
G1 X162.481 Y104.987 E3.77688
G1 X161.77 Y105.477 E3.80647
G1 X161.589 Y105.636 E3.81472
G1 X160.909 Y106.402 E3.84981
G1 X160.77 Y106.604 E3.85821
G1 X160.348 Y107.414 E3.8895
G1 X160.267 Y107.627 E3.89731
G1 X159.998 Y108.672 E3.93427
G1 X159.966 Y108.921 E3.94287
G1 X159.966 Y109.893 E3.97617
G1 X159.993 Y110.126 E3.98421
G1 X160.219 Y111.07 E4.01746
G1 X160.313 Y111.313 E4.02639
G1 X160.8 Y112.213 E4.06144
G1 X160.927 Y112.396 E4.06907
G1 X161.561 Y113.119 E4.10202
G1 X161.767 Y113.297 E4.11134
G1 X162.636 Y113.864 E4.14689
G1 X162.805 Y113.953 E4.15343
G1 X163.653 Y114.298 E4.1848
G1 X163.916 Y114.366 E4.1941
G1 X164.929 Y114.482 E4.22903
G1 X165.043 Y114.488 E4.23294
G1 X160.135 Y114.488 E4.40108
G1 X160.135 Y112.072 E4.48385
G1 X160.095 Y111.793 E4.4935
G1 X159.979 Y111.536 E4.50316
G1 X159.842 Y111.365 E4.51067
G1 X159.56 Y111.083 E4.52433
G1 X159.334 Y110.914 E4.534
G1 X159.07 Y110.814 E4.54367
G1 X158.854 Y110.79 E4.55112
G1 X155.315 Y110.788 E4.67235
G1 X154.321 Y110.684 E4.70659
G1 X153.683 Y110.441 E4.72998
G1 X153.162 Y110.076 E4.75177
G1 X152.639 Y109.499 E4.77845
G1 X152.339 Y108.921 E4.80076
G1 X152.164 Y108.214 E4.82571
G1 X152.165 Y107.505 E4.85
G1 X152.317 Y106.881 E4.872
G1 X152.653 Y106.246 E4.89662
G0 F6000 X152.322 Y106.016
G1 F1200 X152.852 Y105.425 E4.92381
G1 X153.515 Y104.966 E4.95144
G1 X154.24 Y104.689 E4.97802
G1 X155.094 Y104.587 E5.00749
G1 X183.836 Y104.588 E5.99213
G1 X183.837 Y129.689 E6.85204
G1 X178.086 Y129.688 E7.04906
G1 X178.086 Y116.074 E7.51544
G1 X178.046 Y115.859 E7.52293
G1 X177.91 Y115.65 E7.53148
G1 X177.324 Y115.064 E7.55987
G1 X177.145 Y114.94 E7.56733
G1 X176.9 Y114.888 E7.57591
G1 X159.735 Y114.888 E8.16395
G1 X159.735 Y112.072 E8.26042
G1 X159.695 Y111.857 E8.26791
G1 X159.559 Y111.648 E8.27645
G1 X159.277 Y111.366 E8.29011
G1 X159.098 Y111.242 E8.29757
G1 X158.853 Y111.19 E8.30615
G1 X155.293 Y111.188 E8.42811
G1 X154.227 Y111.076 E8.46483
G1 X153.499 Y110.799 E8.49151
G1 X152.896 Y110.377 E8.51673
G1 X152.307 Y109.728 E8.54675
G1 X151.961 Y109.061 E8.57249
G1 X151.764 Y108.265 E8.60059
G1 X151.765 Y107.455 E8.62834
G1 X151.939 Y106.738 E8.65361
G1 X152.322 Y106.016 E8.68161
G0 F6000 X151.993 Y105.784
G1 F1200 X152.584 Y105.124 E8.71196
G1 X153.33 Y104.608 E8.74303
G1 X154.141 Y104.298 E8.77278
G1 X155.072 Y104.187 E8.8049
G1 X184.236 Y104.188 E9.804
G1 X184.237 Y130.089 E10.69131
G1 X177.382 Y130.088 E10.92615
G1 X177.627 Y129.843 E10.93802
G1 X177.686 Y129.702 E10.94326
G1 X177.686 Y116.074 E11.41012
G1 X177.627 Y115.933 E11.41536
G1 X177.041 Y115.347 E11.44375
G1 X176.9 Y115.288 E11.44899
G1 X159.722 Y115.288 E12.03747
G1 X159.581 Y115.347 E12.0427
G1 X159.335 Y115.593 E12.05462
G1 X159.335 Y112.072 E12.17525
G1 X159.276 Y111.931 E12.18048
G1 X158.994 Y111.649 E12.19414
G1 X158.853 Y111.59 E12.19938
G1 X155.27 Y111.588 E12.32213
G1 X154.134 Y111.469 E12.36126
G1 X153.31 Y111.155 E12.39146
G1 X152.627 Y110.677 E12.42002
G1 X151.977 Y109.96 E12.45318
G1 X151.585 Y109.205 E12.48232
G1 X151.364 Y108.312 E12.51384
G1 X151.365 Y107.404 E12.54494
G1 X151.561 Y106.599 E12.57333
G1 X151.993 Y105.784 E12.60493
G0 F6000 X160.385 Y108.771
G1 F1200 X160.366 Y108.921 E12.61011
G1 X160.366 Y109.893 E12.6434
G1 X160.382 Y110.033 E12.64823
G1 X160.608 Y110.977 E12.68149
G1 X160.664 Y111.123 E12.68684
G1 X161.151 Y112.023 E12.7219
G1 X161.228 Y112.133 E12.7265
G1 X161.862 Y112.856 E12.75944
G1 X161.985 Y112.962 E12.765
G1 X162.854 Y113.529 E12.80055
G1 X162.956 Y113.583 E12.8045
G1 X163.804 Y113.928 E12.83587
G1 X163.962 Y113.968 E12.84145
G1 X164.975 Y114.084 E12.87638
G1 X165.043 Y114.088 E12.87871
G1 X179.093 Y114.088 E13.36004
G1 X179.168 Y114.083 E13.36261
G1 X180.075 Y113.968 E13.39393
G1 X180.209 Y113.935 E13.39866
G1 X181.13 Y113.593 E13.43232
G1 X181.263 Y113.524 E13.43745
G1 X182.08 Y112.958 E13.4715
G1 X182.18 Y112.87 E13.47606
G1 X182.846 Y112.143 E13.50984
G1 X182.938 Y112.012 E13.51532
G1 X183.409 Y111.094 E13.55067
G1 X183.458 Y110.964 E13.55543
G1 X183.689 Y110.028 E13.58846
G1 X183.706 Y109.884 E13.59343
G1 X183.706 Y108.88 E13.62782
G1 X183.689 Y108.736 E13.63279
G1 X183.459 Y107.803 E13.66571
G1 X183.406 Y107.667 E13.67071
G1 X182.947 Y106.799 E13.70434
G1 X182.868 Y106.683 E13.70915
G1 X182.178 Y105.896 E13.74501
G1 X182.063 Y105.795 E13.75025
G1 X181.306 Y105.283 E13.78156
G1 X181.19 Y105.222 E13.78605
G1 X180.237 Y104.846 E13.82115
G1 X180.089 Y104.808 E13.82638
G1 X179.126 Y104.692 E13.85961
G1 X179.054 Y104.688 E13.86208
G1 X164.968 Y104.688 E14.34464
G1 X164.901 Y104.692 E14.34694
G1 X163.991 Y104.794 E14.37831
G1 X163.834 Y104.833 E14.38385
G1 X162.875 Y105.218 E14.41925
G1 X162.759 Y105.281 E14.42377
G1 X161.997 Y105.806 E14.45547
G1 X161.888 Y105.902 E14.46045
G1 X161.208 Y106.668 E14.49554
G1 X161.125 Y106.789 E14.50057
G1 X160.703 Y107.599 E14.53186
G1 X160.654 Y107.726 E14.53652
G1 X160.385 Y108.771 E14.57349
G0 F6000 X160.772 Y108.871
G1 F1200 X160.766 Y108.921 E14.57521
G1 X160.766 Y109.893 E14.60851
G1 X160.771 Y109.94 E14.61013
G1 X160.997 Y110.884 E14.64338
G1 X161.016 Y110.932 E14.64515
G1 X161.503 Y111.832 E14.68021
G1 X161.529 Y111.869 E14.68176
G1 X162.163 Y112.592 E14.7147
G1 X162.204 Y112.627 E14.71655
G1 X163.073 Y113.194 E14.75209
G1 X163.107 Y113.212 E14.75341
G1 X163.955 Y113.557 E14.78477
G1 X164.007 Y113.571 E14.78662
G1 X165.02 Y113.687 E14.82155
G1 X179.093 Y113.688 E15.30366
G1 X180.025 Y113.571 E15.33584
G1 X180.07 Y113.56 E15.33743
G1 X180.991 Y113.218 E15.37108
G1 X181.035 Y113.195 E15.37278
G1 X181.852 Y112.629 E15.40683
G1 X181.885 Y112.6 E15.40834
G1 X182.551 Y111.873 E15.44211
G1 X182.582 Y111.829 E15.44396
G1 X183.053 Y110.911 E15.4793
G1 X183.069 Y110.868 E15.48088
G1 X183.3 Y109.932 E15.5139
G1 X183.306 Y109.884 E15.51556
G1 X183.306 Y108.88 E15.54996
G1 X183.3 Y108.832 E15.55161
G1 X183.07 Y107.899 E15.58453
G1 X183.053 Y107.854 E15.58618
G1 X182.594 Y106.986 E15.61982
G1 X182.567 Y106.947 E15.62144
G1 X181.877 Y106.16 E15.6573
G1 X181.839 Y106.126 E15.65905
G1 X181.082 Y105.614 E15.69035
G1 X181.043 Y105.594 E15.69186
G1 X180.09 Y105.218 E15.72695
G1 X180.041 Y105.205 E15.72869
G1 X179.078 Y105.089 E15.76192
G1 X164.946 Y105.089 E16.24605
G1 X164.036 Y105.191 E16.27742
G1 X163.983 Y105.204 E16.27929
G1 X163.024 Y105.589 E16.31469
G1 X162.986 Y105.61 E16.31618
G1 X162.224 Y106.135 E16.34788
G1 X162.187 Y106.167 E16.34956
G1 X161.507 Y106.933 E16.38465
G1 X161.48 Y106.974 E16.38633
G1 X161.058 Y107.784 E16.41762
G1 X161.041 Y107.826 E16.41917
G1 X160.772 Y108.871 E16.45614
G0 F6000 X160.535 Y112.529
G1 F1200 X160.626 Y112.66 E16.4616
G1 X161.26 Y113.383 E16.49454
G1 X161.548 Y113.632 E16.50759
G1 X162.247 Y114.088 E16.53618
G1 X160.535 Y114.088 E16.59483
G1 X160.535 Y112.529 E16.64823
G0 F6000 X160.935 Y113.618
G1 F1200 X161.007 Y113.688 E16.65167
G1 X160.935 Y113.688 E16.65414
G1 X160.935 Y113.618 E16.65654
G0 F6000 X176.9 Y114.488
G1 F1200 X179.093 Y114.488 E16.73167
G1 X179.219 Y114.48 E16.73599
G1 X180.126 Y114.365 E16.76731
G1 X180.348 Y114.31 E16.77515
G1 X181.269 Y113.968 E16.8088
G1 X181.49 Y113.853 E16.81734
G1 X182.307 Y113.287 E16.85139
G1 X182.475 Y113.14 E16.85904
G1 X183.141 Y112.413 E16.89281
G1 X183.294 Y112.194 E16.90196
G1 X183.436 Y111.917 E16.91263
G1 X183.437 Y129.289 E17.50776
G1 X178.486 Y129.288 E17.67737
G1 X178.486 Y116.074 E18.13005
G1 X178.446 Y115.795 E18.13971
G1 X178.33 Y115.538 E18.14937
G1 X178.193 Y115.367 E18.15687
G1 X177.607 Y114.781 E18.18526
G1 X177.381 Y114.612 E18.19493
G1 X177.117 Y114.512 E18.2046
G1 X176.9 Y114.488 E18.21208
G0 F6000 X178.28 Y114.888
G1 F1200 X179.093 Y114.888 E18.23993
G1 X179.269 Y114.877 E18.24598
G1 X180.176 Y114.762 E18.2773
G1 X180.487 Y114.685 E18.28827
G1 X181.408 Y114.343 E18.32193
G1 X181.718 Y114.182 E18.3339
G1 X182.535 Y113.616 E18.36794
G1 X182.77 Y113.411 E18.37863
G1 X183.036 Y113.12 E18.39213
G1 X183.037 Y128.889 E18.93235
G1 X178.886 Y128.888 E19.07455
G1 X178.886 Y116.074 E19.51353
G1 X178.846 Y115.742 E19.52499
G1 X178.729 Y115.43 E19.53641
G1 X178.476 Y115.084 E19.55109
G1 X178.28 Y114.888 E19.56058
G0 F6000 X179.099 Y115.288
G1 F1200 X179.319 Y115.274 E19.56814
G1 X180.226 Y115.159 E19.59946
G1 X180.627 Y115.06 E19.61361
G1 X181.548 Y114.718 E19.64726
G1 X181.946 Y114.511 E19.66263
G1 X182.636 Y114.033 E19.69139
G1 X182.637 Y128.489 E20.18662
G1 X179.286 Y128.488 E20.30142
G1 X179.286 Y116.074 E20.7267
G1 X179.246 Y115.697 E20.73969
G1 X179.128 Y115.337 E20.75266
G1 X179.099 Y115.288 E20.75461
G0 F6000 X179.64 Y115.637
G1 F1200 X180.277 Y115.556 E20.77661
G1 X180.766 Y115.435 E20.79387
G1 X181.687 Y115.093 E20.82753
G1 X182.174 Y114.839 E20.84634
G1 X182.236 Y114.796 E20.84893
G1 X182.237 Y128.089 E21.30432
G1 X179.686 Y128.088 E21.39171
G1 X179.686 Y116.074 E21.80329
G1 X179.646 Y115.657 E21.81764
G1 X179.64 Y115.637 E21.81835
G0 F6000 X180.078 Y115.984
G1 F1200 X180.327 Y115.952 E21.82695
G1 X180.905 Y115.81 E21.84734
G1 X181.836 Y115.463 E21.88138
G1 X181.837 Y127.689 E22.30022
G1 X180.086 Y127.688 E22.3602
G1 X180.086 Y116.074 E22.75807
G1 X180.078 Y115.984 E22.76117
G0 F6000 X180.486 Y116.322
G1 F1200 X181.044 Y116.185 E22.78085
G1 X181.436 Y116.039 E22.79518
G1 X181.437 Y127.289 E23.18059
G1 X180.486 Y127.288 E23.21317
G1 X180.486 Y116.322 E23.58884
G0 F6000 X180.886 Y116.633
G1 F1200 X181.036 Y116.596 E23.59413
G1 X181.037 Y126.889 E23.94675
G1 X180.886 Y126.889 E23.95192
G1 X180.886 Y116.633 E24.30327
G0 F6000 X182.797 Y105.388
G1 F1200 X183.036 Y105.388 E24.31146
G1 X183.036 Y105.661 E24.32081
G1 X182.797 Y105.388 E24.33324
G0 F6000 X181.583 Y104.988
G1 F1200 X183.436 Y104.988 E24.39672
G1 X183.436 Y106.867 E24.46109
G1 X183.301 Y106.612 E24.47098
G1 X183.169 Y106.42 E24.47896
G1 X182.479 Y105.633 E24.51481
G1 X182.287 Y105.464 E24.52358
G1 X181.583 Y104.988 E24.55269
G1 F2700 E19.55269
G0 F6000 X123.421 Y85.111
G0 X123.77 Y85.421
G1 F2700 E24.55269
G1 F1200 X123.515 Y85.641 E24.56423
G1 X123.228 Y85.782 E24.57518
G1 X123.003 Y85.836 E24.58311
G1 X122.657 Y85.837 E24.59496
G1 X122.35 Y85.754 E24.60586
G1 X122.073 Y85.585 E24.61697
G1 X121.891 Y85.425 E24.62527
G1 X121.75 Y85.218 E24.63385
G1 X121.626 Y84.926 E24.64472
G1 X121.614 Y84.857 E24.64712
G1 X121.585 Y84.603 E24.65588
G1 X121.619 Y84.321 E24.66561
G1 X121.715 Y84.049 E24.67549
G1 X121.747 Y83.992 E24.67773
G1 X121.89 Y83.784 E24.68638
G1 X122.139 Y83.567 E24.69769
G1 X122.426 Y83.428 E24.70862
G1 X122.655 Y83.372 E24.71669
G1 X123.001 Y83.371 E24.72855
G1 X123.307 Y83.454 E24.73941
G1 X123.555 Y83.598 E24.74923
G1 X123.77 Y83.789 E24.75909
G1 X123.914 Y83.999 E24.76781
G1 X124.031 Y84.282 E24.7783
G1 X124.044 Y84.349 E24.78064
G1 X124.073 Y84.602 E24.78936
G1 X124.039 Y84.886 E24.79916
G1 X124.033 Y84.92 E24.80034
G1 X123.941 Y85.162 E24.80921
G1 X123.77 Y85.421 E24.81984
G0 F6000 X123.469 Y85.153
G1 F1200 X123.129 Y85.391 E24.83406
G1 X122.954 Y85.436 E24.84025
G1 X122.706 Y85.437 E24.84875
G1 X122.366 Y85.308 E24.86121
G1 X122.194 Y85.159 E24.869
